packages/kaspersky-hexa-ui-icons/src/iconsSVGs/48/Notes.svg

<svg xmlns="http://www.w3.org/2000/svg" width="48" height="48" fill="none" viewBox="0 0 48 48"><path fill="currentColor" fill-rule="evenodd" d="M43 4V2h-2v2h-4V2h-2v2h-4V2h-2v2h-4V2h-2v2h-4V2h-2v2h-4V2h-2v2H7V2H5v2H1v42h46V4zm2 31h-6v6H3V14h42zm-4 2h2.59L41 39.59zM5 6v2h2V6h4v2h2V6h4v2h2V6h4v2h2V6h4v2h2V6h4v2h2V6h4v2h2V6h2v6H3V6zM3 44v-1h37.41L45 38.41V44zm35-23H10v-2h28zm0 4H10v-2h28zm0 4H10v-2h28zm-28 4v-2h14v2z" clip-rule="evenodd"/></svg>

<svg width="48" height="48" viewBox="0 0 48 48" fill="none" xmlns="http://www.w3.org/2000/svg">
<path fill-rule="evenodd" clip-rule="evenodd" d="M43 4V2H41V4H37V2H35V4H31V2H29V4H25V2H23V4H19V2H17V4H13V2H11V4H7V2H5V4H1V46H47V4H43ZM45 35H39V41H3V14H45V35ZM41 37H43.59L41 39.59V37ZM5 6V8H7V6H11V8H13V6H17V8H19V6H23V8H25V6H29V8H31V6H35V8H37V6H41V8H43V6H45V12H3V6H5ZM3 44V43H40.41L45 38.41V44H3ZM38 21H10V19H38V21ZM38 25H10V23H38V25ZM38 29H10V27H38V29ZM10 33V31H24V33H10Z"  fill="currentColor"/>
</svg>
